X: 2
T: Kate and Rose's
M: C|
L: 1/8
K: Dm
%%text Skip the pickup on transition.
E | \
"Dm"FD (3.D.D.D AD (3.D.D.D |dDDd dcAG | FD (3.D.D.D AGFD |"C"EDCD "A"EFGE |
"Dm"FD (3.D.D.D AD (3.D.D.D |dDDd dcAG |"F"F2 cF dFcF |"C"E3 E EDC :|
K: G
|:e | \
"D"fd (3.d.d.d fdad |f3 f fede |"D"fd (3.d.d.d fdad |"C"cBAB "Am"cBAe |
"D"fd (3.d.d.d fdad |f3 f fedB |"C"c2 gc acgc |["normal""G"B3 B BAG :|["transition""G"B3z"E7"z4|]
% %text 05/22/10
%
P: Kate and Rose's Low Octave B part:
K: G
E | \
"D"FD (3.D.D.D FDAD |F3 F FEDE  |"D"FD (3.D.D.D FDAD |"C"CB,A,B, "Am"CB,A,E  |
"D"FD (3.D.D.D FDAD |F3 F FEDB, |"C"C2    GC    ACGC |"G"B,3  B,     B,A,G, :|
% %text 05/22/10


